src/assets/images/landing/thirdPartyLogos/neonpass_logo_text.svg

<svg width="163" height="30" viewBox="0 0 163 30" fill="none" xmlns="http://www.w3.org/2000/svg">
<g clip-path="url(#clip0_1585_243)">
<path d="M12.835 14.102L1.79785 3.07153V14.102H12.835Z" fill="#FF86FF"/>
<path d="M1.54242 0.267169L15.6377 14.3624C15.8048 14.5312 15.8987 14.7592 15.8987 14.9967C15.8987 15.2343 15.8048 15.4623 15.6377 15.6311C15.5514 15.72 15.4474 15.7898 15.3323 15.8358C15.2173 15.8818 15.0938 15.9031 14.97 15.8982H0.901452C0.78283 15.899 0.665178 15.8763 0.555414 15.8313C0.445649 15.7864 0.345951 15.72 0.26207 15.6361C0.17819 15.5522 0.111805 15.4525 0.0668201 15.3427C0.0218351 15.233 -0.000863474 15.1154 2.51153e-05 14.9967V0.894813C0.00122979 0.716617 0.0552103 0.542778 0.155174 0.395257C0.255137 0.247735 0.396592 0.133155 0.561649 0.065989C0.726706 -0.00117724 0.907995 -0.0179087 1.08256 0.0178998C1.25713 0.0537084 1.41714 0.140445 1.54242 0.267169Z" fill="#FF86FF"/>
<path d="M17.1748 15.8979L28.2053 26.9284V15.8979H17.1748Z" fill="#E200F1"/>
<path d="M28.4578 29.7263L14.3625 15.631C14.1953 15.4623 14.1016 15.2343 14.1016 14.9967C14.1016 14.7591 14.1953 14.5312 14.3625 14.3624C14.4505 14.2763 14.5551 14.2088 14.6698 14.1641C14.7845 14.1193 14.9071 14.0982 15.0302 14.102H29.1321C29.3694 14.102 29.597 14.1963 29.7648 14.3641C29.9326 14.5319 30.0269 14.7594 30.0269 14.9967V29.0986C30.0278 29.2167 30.0053 29.3338 29.9607 29.4431C29.9161 29.5524 29.8503 29.6519 29.7672 29.7356C29.684 29.8194 29.5851 29.8859 29.4761 29.9313C29.3671 29.9767 29.2502 30.0001 29.1321 30.0001C29.0081 30.0021 28.885 29.9789 28.7702 29.9318C28.6554 29.8847 28.5514 29.8148 28.4644 29.7263" fill="#E200F1"/>
<path d="M15.637 15.6309L1.54177 29.7262C1.45509 29.815 1.35113 29.8851 1.23628 29.9322C1.12144 29.9793 0.998164 30.0023 0.874067 29.9999C0.755446 30.0008 0.637834 29.9781 0.52807 29.9331C0.418306 29.8881 0.318566 29.8218 0.234686 29.7379C0.150805 29.654 0.0844614 29.5543 0.0394763 29.4445C-0.00550869 29.3347 -0.0282072 29.2171 -0.0273186 29.0985V14.9966C-0.0273219 14.8785 -0.00398937 14.7616 0.0413918 14.6526C0.0867729 14.5437 0.153299 14.4447 0.23709 14.3615C0.320881 14.2784 0.420294 14.2126 0.529619 14.168C0.638944 14.1235 0.75601 14.101 0.874067 14.1019H15.0027C15.183 14.0943 15.3614 14.1414 15.5144 14.2371C15.6674 14.3327 15.7879 14.4724 15.8601 14.6377C15.9324 14.8031 15.9529 14.9864 15.919 15.1637C15.8852 15.3409 15.7985 15.5038 15.6704 15.6309" fill="#FF59FF"/>
<path d="M1.79785 26.9284L12.835 15.8979H1.79785V26.9284Z" fill="#FF59FF"/>
<path d="M0.266569 28.4644L14.3618 14.3691C14.4481 14.2801 14.5521 14.2104 14.6672 14.1644C14.7822 14.1183 14.9057 14.0971 15.0295 14.102C15.2668 14.102 15.4944 14.1963 15.6622 14.3641C15.83 14.5319 15.9243 14.7594 15.9243 14.9967V29.0987C15.9251 29.2167 15.9027 29.3338 15.8581 29.4431C15.8135 29.5524 15.7477 29.6519 15.6645 29.7357C15.5814 29.8195 15.4825 29.886 15.3735 29.9313C15.2645 29.9767 15.1476 30.0001 15.0295 30.0001H0.900897C0.782543 30.0012 0.665206 29.978 0.556122 29.9321C0.447039 29.8862 0.348505 29.8184 0.266569 29.733C0.182179 29.6503 0.115131 29.5516 0.0693625 29.4427C0.0235938 29.3338 0 29.2168 0 29.0987C0 28.9805 0.0235938 28.8636 0.0693625 28.7547C0.115131 28.6457 0.182179 28.547 0.266569 28.4644Z" fill="#F41AFA"/>
<path d="M14.1037 17.1733L3.07324 28.2038H14.1037V17.1733Z" fill="#F41AFA"/>
<path d="M14.3623 14.3624L28.4575 0.267156C28.5448 0.17952 28.649 0.110619 28.7639 0.0646923C28.8787 0.0187661 29.0016 -0.00321323 29.1253 7.7648e-05C29.2428 7.7648e-05 29.3591 0.0232126 29.4677 0.0681767C29.5762 0.113141 29.6748 0.17906 29.7579 0.262143C29.841 0.345226 29.9069 0.443857 29.9519 0.55241C29.9969 0.660963 30.02 0.777303 30.02 0.8948V14.9967C30.0209 15.1148 29.9984 15.2319 29.9538 15.3412C29.9092 15.4505 29.8435 15.5499 29.7603 15.6337C29.6771 15.7175 29.5782 15.784 29.4692 15.8294C29.3602 15.8748 29.2433 15.8981 29.1253 15.8981H15.0033C14.8231 15.9037 14.6453 15.855 14.493 15.7585C14.3407 15.6619 14.2209 15.5219 14.149 15.3566C14.0771 15.1912 14.0564 15.0081 14.0897 14.8308C14.123 14.6536 14.2086 14.4905 14.3356 14.3624" fill="#BC00DE"/>
<path d="M28.2053 3.07153L17.1748 14.102H28.2053V3.07153Z" fill="#BC00DE"/>
<path d="M29.7386 1.53584L15.6433 15.6311C15.5552 15.7175 15.4508 15.7856 15.3362 15.8314C15.2216 15.8773 15.099 15.9 14.9756 15.8982C14.857 15.8991 14.7394 15.8764 14.6296 15.8314C14.5199 15.7864 14.4202 15.72 14.3363 15.6361C14.2524 15.5523 14.186 15.4525 14.141 15.3428C14.0961 15.233 14.0734 15.1154 14.0742 14.9968V0.894851C14.0742 0.77679 14.0976 0.659902 14.143 0.550912C14.1884 0.441921 14.2549 0.34298 14.3387 0.259809C14.4224 0.176639 14.5219 0.110881 14.6312 0.0663117C14.7405 0.0217422 14.8576 -0.000752998 14.9756 0.000128053H29.0776C29.2008 -0.00442932 29.3236 0.0163257 29.4384 0.0611157C29.5533 0.105906 29.6577 0.173768 29.7453 0.260523C29.9129 0.430446 30.0068 0.659528 30.0068 0.898193C30.0068 1.13686 29.9129 1.36592 29.7453 1.53584" fill="#9900CC"/>
<path d="M15.8994 12.8266L26.9366 1.79614H15.8994V12.8266Z" fill="#9900CC"/>
<path d="M42.8429 22H40.0879V7.64501H42.7849V9.58801H42.9009C43.4809 8.87268 44.1962 8.30234 45.0469 7.87701C45.8976 7.45168 46.8352 7.23901 47.8599 7.23901C49.0779 7.23901 50.1412 7.50968 51.0499 8.05101C51.9779 8.57301 52.6932 9.32701 53.1959 10.313C53.7179 11.299 53.9789 12.4493 53.9789 13.764V22H51.2239V14.257C51.2239 12.981 50.8662 11.937 50.1509 11.125C49.4549 10.313 48.4979 9.90701 47.2799 9.90701C46.4099 9.90701 45.6366 10.1197 44.9599 10.545C44.3026 10.9703 43.7806 11.56 43.3939 12.314C43.0266 13.0487 42.8429 13.8897 42.8429 14.837V22Z" fill="white"/>
<path d="M55.1484 14.837C55.1484 13.445 55.4577 12.169 56.0764 11.009C56.7144 9.84901 57.5941 8.93068 58.7154 8.25401C59.8561 7.57734 61.1417 7.23901 62.5724 7.23901C64.1191 7.23901 65.4724 7.61601 66.6324 8.37001C67.8117 9.12401 68.6817 10.1583 69.2424 11.473C69.8224 12.7683 70.0544 14.2087 69.9384 15.794H58.0774C58.1354 16.5287 58.3674 17.2053 58.7734 17.824C59.1987 18.4233 59.7497 18.897 60.4264 19.245C61.1224 19.593 61.8957 19.767 62.7464 19.767C63.6744 19.767 64.4961 19.564 65.2114 19.158C65.9267 18.752 66.4487 18.2107 66.7774 17.534H69.6484C69.1651 19.042 68.2951 20.231 67.0384 21.101C65.7817 21.971 64.3124 22.406 62.6304 22.406C61.1224 22.406 59.7981 22.0677 58.6574 21.391C57.5361 20.695 56.6661 19.7767 56.0474 18.636C55.4481 17.476 55.1484 16.2097 55.1484 14.837ZM66.9514 13.358C66.8161 12.6813 66.5357 12.082 66.1104 11.56C65.7044 11.0187 65.1921 10.603 64.5734 10.313C63.9547 10.023 63.2684 9.87801 62.5144 9.87801C61.7797 9.87801 61.1031 10.0327 60.4844 10.342C59.8657 10.632 59.3534 11.038 58.9474 11.56C58.5414 12.082 58.2707 12.6813 58.1354 13.358H66.9514Z" fill="white"/>
<path d="M78.2569 22.406C76.7295 22.406 75.3762 22.0677 74.1969 21.391C73.0175 20.7143 72.0992 19.796 71.4419 18.636C70.8039 17.476 70.4849 16.2 70.4849 14.808C70.4849 13.3967 70.8039 12.1207 71.4419 10.98C72.0992 9.82001 73.0175 8.91134 74.1969 8.25401C75.3762 7.57734 76.7295 7.23901 78.2569 7.23901C79.7455 7.23901 81.0699 7.57734 82.2299 8.25401C83.4092 8.91134 84.3179 9.82001 84.9559 10.98C85.5939 12.1207 85.9129 13.3967 85.9129 14.808C85.9129 16.2 85.5842 17.476 84.9269 18.636C84.2889 19.796 83.3899 20.7143 82.2299 21.391C81.0699 22.0677 79.7455 22.406 78.2569 22.406ZM73.2689 14.808C73.2689 15.7167 73.4719 16.548 73.8779 17.302C74.3032 18.056 74.8929 18.6553 75.6469 19.1C76.4009 19.5447 77.2709 19.767 78.2569 19.767C79.2042 19.767 80.0452 19.5447 80.7799 19.1C81.5339 18.6553 82.1139 18.056 82.5199 17.302C82.9452 16.5287 83.1579 15.6973 83.1579 14.808C83.1579 13.8993 82.9452 13.068 82.5199 12.314C82.1139 11.56 81.5339 10.9703 80.7799 10.545C80.0452 10.1003 79.2042 9.87801 78.2569 9.87801C77.2709 9.87801 76.4009 10.1003 75.6469 10.545C74.8929 10.9703 74.3032 11.56 73.8779 12.314C73.4719 13.068 73.2689 13.8993 73.2689 14.808Z" fill="white"/>
<path d="M90.0155 22H87.2605V7.64501H89.9575V9.58801H90.0735C90.6535 8.87268 91.3688 8.30234 92.2195 7.87701C93.0701 7.45168 94.0078 7.23901 95.0325 7.23901C96.2505 7.23901 97.3138 7.50968 98.2225 8.05101C99.1505 8.57301 99.8658 9.32701 100.368 10.313C100.89 11.299 101.151 12.4493 101.151 13.764V22H98.3965V14.257C98.3965 12.981 98.0388 11.937 97.3235 11.125C96.6275 10.313 95.6705 9.90701 94.4525 9.90701C93.5825 9.90701 92.8091 10.1197 92.1325 10.545C91.4751 10.9703 90.9531 11.56 90.5665 12.314C90.1991 13.0487 90.0155 13.8897 90.0155 14.837V22Z" fill="white"/>
<path d="M111.224 7.23901C112.635 7.21968 113.892 7.52901 114.994 8.16701C116.096 8.80501 116.956 9.70401 117.575 10.864C118.213 12.024 118.532 13.3387 118.532 14.808C118.532 16.2773 118.213 17.592 117.575 18.752C116.956 19.912 116.086 20.8207 114.965 21.478C113.863 22.116 112.626 22.4253 111.253 22.406C110.151 22.3867 109.155 22.145 108.266 21.681C107.377 21.1977 106.652 20.5597 106.091 19.767H105.975V27.8H103.249V7.64501H105.975V9.73301H106.12C106.661 8.97901 107.367 8.37968 108.237 7.93501C109.126 7.49034 110.122 7.25835 111.224 7.23901ZM110.847 19.738C111.833 19.738 112.693 19.5253 113.428 19.1C114.182 18.6553 114.762 18.056 115.168 17.302C115.574 16.548 115.777 15.7167 115.777 14.808C115.777 13.8993 115.574 13.068 115.168 12.314C114.762 11.56 114.182 10.9703 113.428 10.545C112.693 10.1003 111.833 9.87801 110.847 9.87801C109.9 9.87801 109.059 10.1003 108.324 10.545C107.589 10.9703 107.019 11.56 106.613 12.314C106.207 13.068 106.004 13.8993 106.004 14.808C106.004 15.7167 106.207 16.548 106.613 17.302C107.019 18.0367 107.589 18.6263 108.324 19.071C109.059 19.5157 109.9 19.738 110.847 19.738Z" fill="white"/>
<path d="M131.659 9.73301V7.64501H134.385V22H131.659V19.767H131.543C130.983 20.579 130.267 21.217 129.397 21.681C128.527 22.145 127.522 22.3867 126.381 22.406C125.009 22.4253 123.762 22.116 122.64 21.478C121.538 20.8207 120.668 19.912 120.03 18.752C119.412 17.592 119.102 16.2773 119.102 14.808C119.102 13.3387 119.412 12.024 120.03 10.864C120.668 9.70401 121.538 8.80501 122.64 8.16701C123.742 7.52901 124.999 7.21968 126.41 7.23901C127.532 7.25835 128.527 7.49034 129.397 7.93501C130.267 8.37968 130.983 8.97901 131.543 9.73301H131.659ZM126.787 19.738C127.735 19.738 128.576 19.5157 129.31 19.071C130.045 18.6263 130.615 18.0367 131.021 17.302C131.427 16.548 131.63 15.7167 131.63 14.808C131.63 13.8993 131.427 13.068 131.021 12.314C130.615 11.56 130.045 10.9703 129.31 10.545C128.576 10.1003 127.735 9.87801 126.787 9.87801C125.801 9.87801 124.931 10.1003 124.177 10.545C123.443 10.9703 122.872 11.56 122.466 12.314C122.06 13.068 121.857 13.8993 121.857 14.808C121.857 15.7167 122.06 16.548 122.466 17.302C122.872 18.056 123.443 18.6553 124.177 19.1C124.931 19.5253 125.801 19.738 126.787 19.738Z" fill="white"/>
<path d="M135.884 11.56C135.884 10.8253 136.058 10.1583 136.406 9.55902C136.754 8.95969 137.237 8.49569 137.856 8.16702C138.475 7.81902 139.171 7.64502 139.944 7.64502H147.919V10.313H140.002C139.635 10.313 139.335 10.429 139.103 10.661C138.89 10.8737 138.784 11.1637 138.784 11.531C138.784 11.8597 138.871 12.1303 139.045 12.343C139.219 12.5557 139.451 12.691 139.741 12.749L145.657 14.083C146.662 14.315 147.455 14.779 148.035 15.475C148.634 16.171 148.934 17.0023 148.934 17.969C148.934 18.7423 148.76 19.4383 148.412 20.057C148.064 20.6563 147.571 21.13 146.933 21.478C146.314 21.826 145.618 22 144.845 22H136.464V19.332H144.787C145.154 19.332 145.454 19.216 145.686 18.984C145.918 18.7327 146.034 18.404 146.034 17.998C146.034 17.6693 145.947 17.3987 145.773 17.186C145.599 16.954 145.357 16.7993 145.048 16.722L139.103 15.417C138.117 15.2043 137.334 14.75 136.754 14.054C136.174 13.3387 135.884 12.5073 135.884 11.56Z" fill="white"/>
<path d="M149.267 11.56C149.267 10.8253 149.441 10.1583 149.789 9.55902C150.137 8.95969 150.62 8.49569 151.239 8.16702C151.858 7.81902 152.554 7.64502 153.327 7.64502H161.302V10.313H153.385C153.018 10.313 152.718 10.429 152.486 10.661C152.273 10.8737 152.167 11.1637 152.167 11.531C152.167 11.8597 152.254 12.1303 152.428 12.343C152.602 12.5557 152.834 12.691 153.124 12.749L159.04 14.083C160.045 14.315 160.838 14.779 161.418 15.475C162.017 16.171 162.317 17.0023 162.317 17.969C162.317 18.7423 162.143 19.4383 161.795 20.057C161.447 20.6563 160.954 21.13 160.316 21.478C159.697 21.826 159.001 22 158.228 22H149.847V19.332H158.17C158.537 19.332 158.837 19.216 159.069 18.984C159.301 18.7327 159.417 18.404 159.417 17.998C159.417 17.6693 159.33 17.3987 159.156 17.186C158.982 16.954 158.74 16.7993 158.431 16.722L152.486 15.417C151.5 15.2043 150.717 14.75 150.137 14.054C149.557 13.3387 149.267 12.5073 149.267 11.56Z" fill="white"/>
</g>
<defs>
<clipPath id="clip0_1585_243">
<rect width="163" height="30" fill="white"/>
</clipPath>
</defs>
</svg>

<svg xmlns="http://www.w3.org/2000/svg" width="163" height="30" fill="none"><g clip-path="url(#a)"><path fill="#FF86FF" d="M12.835 14.102 1.798 3.072v11.03z"/><path fill="#FF86FF" d="m1.542.267 14.096 14.095a.902.902 0 0 1-.668 1.536H.901A.896.896 0 0 1 0 14.997V.895A.901.901 0 0 1 1.542.267"/><path fill="#E200F1" d="m17.175 15.898 11.03 11.03v-11.03z"/><path fill="#E200F1" d="M28.458 29.726 14.363 15.631a.9.9 0 0 1 0-1.269.91.91 0 0 1 .667-.26h14.102a.895.895 0 0 1 .895.895v14.102a.894.894 0 0 1-.895.901.91.91 0 0 1-.668-.274"/><path fill="#FF59FF" d="M15.637 15.63 1.542 29.727A.9.9 0 0 1 .874 30a.894.894 0 0 1-.901-.901V14.997a.895.895 0 0 1 .901-.895h14.129a.894.894 0 0 1 .667 1.529"/><path fill="#FF59FF" d="m1.798 26.928 11.037-11.03H1.798z"/><path fill="#F41AFA" d="M.267 28.464 14.362 14.37a.88.88 0 0 1 .668-.267.895.895 0 0 1 .894.895v14.102a.896.896 0 0 1-.894.901H.9a.87.87 0 0 1-.633-.267.89.89 0 0 1 0-1.269"/><path fill="#F41AFA" d="m14.104 17.173-11.03 11.03h11.03z"/><path fill="#BC00DE" d="M14.362 14.362 28.458.267A.9.9 0 0 1 29.125 0a.895.895 0 0 1 .895.895v14.102a.894.894 0 0 1-.895.901H15.003a.901.901 0 0 1-.667-1.536"/><path fill="#BC00DE" d="m28.205 3.072-11.03 11.03h11.03z"/><path fill="#90C" d="M29.739 1.536 15.643 15.63a.93.93 0 0 1-.667.267.894.894 0 0 1-.902-.901V.895A.894.894 0 0 1 14.976 0h14.102a.9.9 0 0 1 .667.26.91.91 0 0 1 0 1.276"/><path fill="#90C" d="m15.9 12.827 11.037-11.03H15.899z"/><path fill="#fff" d="M42.843 22h-2.755V7.645h2.697v1.943h.116a6.4 6.4 0 0 1 2.146-1.711q1.275-.638 2.813-.638 1.827 0 3.19.812 1.392.783 2.146 2.262.783 1.479.783 3.451V22h-2.755v-7.743q0-1.914-1.073-3.132-1.044-1.218-2.871-1.218-1.305 0-2.32.638-.986.638-1.566 1.769-.55 1.102-.551 2.523zM55.148 14.837q0-2.088.928-3.828a7.23 7.23 0 0 1 2.64-2.755q1.71-1.015 3.856-1.015 2.32 0 4.06 1.131 1.77 1.13 2.61 3.103.87 1.943.696 4.321h-11.86q.087 1.102.695 2.03.639.9 1.653 1.421 1.044.522 2.32.522 1.392 0 2.465-.609 1.074-.609 1.566-1.624h2.871q-.724 2.262-2.61 3.567t-4.408 1.305q-2.262 0-3.973-1.015a7.3 7.3 0 0 1-2.61-2.755q-.899-1.74-.899-3.799m11.803-1.479a4.06 4.06 0 0 0-.84-1.798 4 4 0 0 0-1.538-1.247q-.928-.435-2.059-.435-1.1 0-2.03.464a4.14 4.14 0 0 0-1.537 1.218 4.24 4.24 0 0 0-.812 1.798zM78.257 22.406q-2.291 0-4.06-1.015a7.25 7.25 0 0 1-2.755-2.755q-.957-1.74-.957-3.828 0-2.116.957-3.828a7.05 7.05 0 0 1 2.755-2.726q1.769-1.015 4.06-1.015 2.233 0 3.973 1.015a6.85 6.85 0 0 1 2.726 2.726q.957 1.71.957 3.828 0 2.088-.986 3.828a7.1 7.1 0 0 1-2.697 2.755q-1.74 1.015-3.973 1.015m-4.988-7.598q0 1.363.609 2.494a4.8 4.8 0 0 0 1.769 1.798q1.131.667 2.61.667 1.42 0 2.523-.667a4.57 4.57 0 0 0 1.74-1.798 5.1 5.1 0 0 0 .638-2.494q0-1.363-.638-2.494a4.4 4.4 0 0 0-1.74-1.769q-1.102-.667-2.523-.667-1.479 0-2.61.667a4.6 4.6 0 0 0-1.77 1.769 5.2 5.2 0 0 0-.608 2.494M90.016 22H87.26V7.645h2.697v1.943h.117a6.4 6.4 0 0 1 2.145-1.711q1.276-.638 2.814-.638 1.826 0 3.19.812 1.391.783 2.145 2.262.783 1.479.783 3.451V22h-2.754v-7.743q0-1.914-1.074-3.132-1.043-1.218-2.87-1.218-1.305 0-2.32.638-.987.638-1.566 1.769-.551 1.102-.551 2.523zM111.224 7.239q2.117-.03 3.77.928 1.653.957 2.581 2.697.957 1.74.957 3.944t-.957 3.944a6.8 6.8 0 0 1-2.61 2.726q-1.653.957-3.712.928-1.653-.03-2.987-.725a6.3 6.3 0 0 1-2.175-1.914h-.116V27.8h-2.726V7.645h2.726v2.088h.145a5.8 5.8 0 0 1 2.117-1.798q1.334-.667 2.987-.696m-.377 12.499q1.479 0 2.581-.638a4.57 4.57 0 0 0 1.74-1.798 5.2 5.2 0 0 0 .609-2.494q0-1.363-.609-2.494a4.4 4.4 0 0 0-1.74-1.769q-1.102-.667-2.581-.667-1.42 0-2.523.667a4.43 4.43 0 0 0-1.711 1.769 5.2 5.2 0 0 0-.609 2.494q0 1.363.609 2.494a4.7 4.7 0 0 0 1.711 1.769q1.103.667 2.523.667M131.659 9.733V7.645h2.726V22h-2.726v-2.233h-.116a6 6 0 0 1-2.146 1.914q-1.305.696-3.016.725-2.058.03-3.741-.928a7.1 7.1 0 0 1-2.61-2.726q-.927-1.74-.928-3.944 0-2.204.928-3.944.957-1.74 2.61-2.697t3.77-.928q1.683.03 2.987.696a6.1 6.1 0 0 1 2.146 1.798zm-4.872 10.005q1.422 0 2.523-.667a4.7 4.7 0 0 0 1.711-1.769 5.2 5.2 0 0 0 .609-2.494q0-1.363-.609-2.494a4.43 4.43 0 0 0-1.711-1.769q-1.101-.667-2.523-.667-1.479 0-2.61.667a4.44 4.44 0 0 0-1.711 1.769 5.2 5.2 0 0 0-.609 2.494q0 1.363.609 2.494a4.64 4.64 0 0 0 1.711 1.798q1.131.638 2.61.638M135.884 11.56q0-1.103.522-2.001.522-.9 1.45-1.392.928-.522 2.088-.522h7.975v2.668h-7.917q-.55 0-.899.348-.32.32-.319.87 0 .494.261.812.261.32.696.406l5.916 1.334q1.508.348 2.378 1.392.899 1.044.899 2.494 0 1.16-.522 2.088a3.74 3.74 0 0 1-1.479 1.421q-.928.522-2.088.522h-8.381v-2.668h8.323q.55 0 .899-.348.348-.377.348-.986 0-.494-.261-.812a1.25 1.25 0 0 0-.725-.464l-5.945-1.305q-1.479-.32-2.349-1.363-.87-1.073-.87-2.494M149.267 11.56q0-1.103.522-2.001.522-.9 1.45-1.392.929-.522 2.088-.522h7.975v2.668h-7.917q-.55 0-.899.348-.32.32-.319.87 0 .494.261.812.261.32.696.406l5.916 1.334q1.508.348 2.378 1.392.899 1.044.899 2.494 0 1.16-.522 2.088a3.74 3.74 0 0 1-1.479 1.421q-.929.522-2.088.522h-8.381v-2.668h8.323q.55 0 .899-.348.348-.377.348-.986 0-.494-.261-.812a1.25 1.25 0 0 0-.725-.464l-5.945-1.305q-1.479-.32-2.349-1.363-.87-1.073-.87-2.494"/></g><defs><clipPath id="a"><path fill="#fff" d="M0 0h163v30H0z"/></clipPath></defs></svg>
